packages/crayons-icon/icons/phone.svg

<?xml version="1.0" encoding="UTF-8"?>
<svg width="16px" height="16px" viewBox="0 0 16 16" version="1.1" xmlns="http://www.w3.org/2000/svg" xmlns:xlink="http://www.w3.org/1999/xlink">
    <!-- Generator: Sketch 52.6 (67491) - http://www.bohemiancoding.com/sketch -->
    <title>icon/phone</title>
    <desc>Created with Sketch.</desc>
    <g id="Icons-✅" stroke="none" stroke-width="1" fill="none" fill-rule="evenodd">
        <g id="Icons" transform="translate(-80.000000, -1463.000000)" fill="currentColor">
            <g id="icon/phone" transform="translate(80.000000, 1463.000000)">
                <g id="phone">
                    <path d="M12.47,16 C11.4579094,16.0014233 10.4497717,15.8737259 9.47,15.62 C4.95363811,14.4094565 1.54147385,10.7012598 0.71,6.1 C0.567523608,5.36191033 0.497192332,4.61171005 0.5,3.86 C0.49759312,2.94494723 0.598227048,2.03253294 0.8,1.14 C0.960893071,0.474173457 1.55502047,0.00382259735 2.24,-7.97159647e-17 L4.7,-7.97159647e-17 C5.30896022,-0.0080547828 5.8956168,0.228922153 6.32813075,0.657675116 C6.76064471,1.08642808 7.00273615,1.67099266 7,2.28 L7,3.86 C6.99938043,4.13776887 6.83458031,4.38889287 6.58,4.5 L4.86,5.25 C5.32389707,8.21557486 7.44633667,10.6528819 10.32,11.52 C10.3524003,11.5450146 10.3975997,11.5450146 10.43,11.52 L11.1,9.94 C11.2080567,9.68150375 11.4598374,9.51233864 11.74,9.51 L13.3,9.51 C14.5497775,9.52099934 15.5555542,10.5401865 15.55,11.79 L15.55,14.43 C15.5547168,15.1583755 15.0287524,15.7818979 14.31,15.9 C13.7001002,15.9800552 13.0849836,16.0134854 12.47,16 Z M2.24,1.4 C2.00394059,2.19830913 1.88932463,3.02758932 1.9,3.86 C1.89639403,4.5308683 1.95666595,5.2005563 2.08,5.86 C2.82135594,9.93638987 5.84742643,13.2195011 9.85,14.29 C11.2220071,14.6392531 12.6499976,14.7106526 14.05,14.5 C14.05,14.5 14.05,14.5 14.05,14.41 L14.05,11.75 C14.0553606,11.5201928 13.9684978,11.2978041 13.808798,11.1324678 C13.6490982,10.9671316 13.4298549,10.8726104 13.2,10.87 L12.16,10.87 L11.67,12 C11.3789163,12.6994073 10.6039764,13.0630663 9.88,12.84 C6.51546892,11.824689 4.00443574,9.00846871 3.38,5.55 C3.29633447,4.89798714 3.64983583,4.26818586 4.25,4 L5.55,3.44 L5.55,2.28 C5.55536063,2.05019278 5.46849779,1.82780408 5.30879801,1.66246783 C5.14909823,1.49713159 4.92985491,1.40261039 4.7,1.4 L2.24,1.4 Z" id="Shape"></path>
                </g>
            </g>
        </g>
    </g>
</svg>

<svg viewBox="0 0 16 16"><path d="M12.47 16a11.9 11.9 0 0 1-3-.38A12.08 12.08 0 0 1 .71 6.1 11.59 11.59 0 0 1 .5 3.86a12.19 12.19 0 0 1 .3-2.72A1.49 1.49 0 0 1 2.24 0H4.7A2.27 2.27 0 0 1 7 2.28v1.58a.7.7 0 0 1-.42.64l-1.72.75a7.81 7.81 0 0 0 5.46 6.27.09.09 0 0 0 .11 0l.67-1.58a.7.7 0 0 1 .64-.43h1.56a2.27 2.27 0 0 1 2.25 2.28v2.64a1.48 1.48 0 0 1-1.24 1.47 12.1 12.1 0 0 1-1.84.1zM2.24 1.4a8.3 8.3 0 0 0-.34 2.46c-.004.67.057 1.34.18 2a10.71 10.71 0 0 0 7.77 8.43c1.372.35 2.8.42 4.2.21v-2.75a.86.86 0 0 0-.85-.88h-1.04L11.67 12a1.47 1.47 0 0 1-1.79.84 9.35 9.35 0 0 1-6.5-7.29A1.49 1.49 0 0 1 4.25 4l1.3-.56V2.28a.86.86 0 0 0-.85-.88H2.24z" fill="currentColor" fill-rule="evenodd"/></svg>
